_includes/icons/ios-inspection.svg

<svg fill="#666" height="50" viewBox="0 0 50 50" width="50" xmlns="http://www.w3.org/2000/svg"><path d="m16.8125 0c-.476562.0898438-.820312.511719-.8125 1v1h-8c-1.644531 0-3 1.355469-3 3v42c0 1.644531 1.355469 3 3 3h34c1.644531 0 3-1.355469 3-3v-42c0-1.644531-1.355469-3-3-3h-8v-1c0-.550781-.449219-1-1-1h-16c-.03125 0-.0625 0-.09375 0s-.0625 0-.09375 0zm1.1875 2h14v6h-14zm-10 2h8v2h-7v40h32v-40h-7v-2h8c.554688 0 1 .445313 1 1v42c0 .554688-.445312 1-1 1h-34c-.554687 0-1-.445312-1-1v-42c0-.554687.445313-1 1-1zm3 4h5v1c0 .550781.449219 1 1 1h16c.550781 0 1-.449219 1-1v-1h5v36h-28zm21.71875 10.625-.5625.84375-8.125 12.59375-5.375-4.8125-.71875-.65625-1.34375 1.46875.75.6875 6.1875 5.59375.875.78125.625-.96875 8.8125-13.625.53125-.8125z"/></svg>

<svg xmlns="http://www.w3.org/2000/svg" viewBox="0 0 50 50" width="50" height="50" fill="#666"><path d="M 16.8125 0 C 16.335938 0.0898438 15.992188 0.511719 16 1 L 16 2 L 8 2 C 6.355469 2 5 3.355469 5 5 L 5 47 C 5 48.644531 6.355469 50 8 50 L 42 50 C 43.644531 50 45 48.644531 45 47 L 45 5 C 45 3.355469 43.644531 2 42 2 L 34 2 L 34 1 C 34 0.449219 33.550781 0 33 0 L 17 0 C 16.96875 0 16.9375 0 16.90625 0 C 16.875 0 16.84375 0 16.8125 0 Z M 18 2 L 32 2 L 32 8 L 18 8 Z M 8 4 L 16 4 L 16 6 L 9 6 L 9 46 L 41 46 L 41 6 L 34 6 L 34 4 L 42 4 C 42.554688 4 43 4.445313 43 5 L 43 47 C 43 47.554688 42.554688 48 42 48 L 8 48 C 7.445313 48 7 47.554688 7 47 L 7 5 C 7 4.445313 7.445313 4 8 4 Z M 11 8 L 16 8 L 16 9 C 16 9.550781 16.449219 10 17 10 L 33 10 C 33.550781 10 34 9.550781 34 9 L 34 8 L 39 8 L 39 44 L 11 44 Z M 32.71875 18.625 L 32.15625 19.46875 L 24.03125 32.0625 L 18.65625 27.25 L 17.9375 26.59375 L 16.59375 28.0625 L 17.34375 28.75 L 23.53125 34.34375 L 24.40625 35.125 L 25.03125 34.15625 L 33.84375 20.53125 L 34.375 19.71875 Z"/></svg>
